alura/assets/api/cursos/data-visualization-estilizacao-tabelas-python.svg

<svg width="50" height="50" viewBox="0 0 50 50" fill="none" xmlns="http://www.w3.org/2000/svg">
<path d="M2.51002 7.01014L1.52002 22.0501L48.12 5.47014L46.44 5.93014C46.44 4.79014 7.21002 4.98014 6.07002 4.98014" fill="#C3FF68"/>
<path d="M1.52002 22.0502L1.65002 34.1802C1.94002 36.2202 5.09002 37.4302 7.13002 37.7102L17.94 39.0102C18.2 39.0502 14.9 42.4102 15.14 42.3202L48.13 30.6002V8.38016C48.13 6.96016 46.73 5.97016 45.39 6.45016L1.52002 22.0502Z" fill="#AFE55D"/>
<path d="M32.21 40.9302V37.9202H39.32" stroke="#444444" stroke-width="2.5" stroke-miterlimit="10" stroke-linecap="round" stroke-linejoin="round"/>
<path d="M48.7301 32.1401L48.7501 11.6301C48.7501 7.76012 45.6101 4.62012 41.7401 4.62012H37.1001H12.5301H8.34008C4.47008 4.62012 1.33008 7.76012 1.33008 11.6301V31.4901C1.33008 35.3601 4.47008 38.5001 8.34008 38.5001L18.1901 38.7601L18.2501 40.9301C13.5601 40.9301 13.4301 45.3801 13.4301 45.3801H36.6401C36.6401 45.3801 37.4801 40.9301 32.2001 40.9301" stroke="#444444" stroke-width="2.5" stroke-miterlimit="10" stroke-linecap="round" stroke-linejoin="round"/>
<path d="M5.65015 30.8301H44.4701" stroke="#444444" stroke-miterlimit="10" stroke-linecap="round" stroke-linejoin="round"/>
<path d="M8.06014 21.7702C9.53474 21.7702 10.7301 20.5748 10.7301 19.1002C10.7301 17.6256 9.53474 16.4302 8.06014 16.4302C6.58554 16.4302 5.39014 17.6256 5.39014 19.1002C5.39014 20.5748 6.58554 21.7702 8.06014 21.7702Z" fill="#444444"/>
<path d="M15.7501 28.39C17.2247 28.39 18.4201 27.1946 18.4201 25.72C18.4201 24.2454 17.2247 23.05 15.7501 23.05C14.2755 23.05 13.0801 24.2454 13.0801 25.72C13.0801 27.1946 14.2755 28.39 15.7501 28.39Z" fill="#444444"/>
<path d="M21.7303 19.85C23.2049 19.85 24.4003 18.6546 24.4003 17.18C24.4003 15.7054 23.2049 14.51 21.7303 14.51C20.2557 14.51 19.0603 15.7054 19.0603 17.18C19.0603 18.6546 20.2557 19.85 21.7303 19.85Z" fill="#444444"/>
<path d="M30.7003 28.39C32.1749 28.39 33.3703 27.1946 33.3703 25.72C33.3703 24.2454 32.1749 23.05 30.7003 23.05C29.2257 23.05 28.0303 24.2454 28.0303 25.72C28.0303 27.1946 29.2257 28.39 30.7003 28.39Z" fill="#444444"/>
<path d="M1.4502 25.2501L7.7302 18.9901L15.7502 25.7201L21.7302 17.1801L30.7002 25.7201L42.9902 11.0901L38.9402 11.3401" stroke="#444444" stroke-miterlimit="10" stroke-linecap="round" stroke-linejoin="round"/>
<path d="M43.6302 15.3601L42.9902 11.0901" stroke="#444444" stroke-miterlimit="10" stroke-linecap="round" stroke-linejoin="round"/>
<path d="M25.2501 36.1901C26.1614 36.1901 26.9001 35.4514 26.9001 34.5401C26.9001 33.6289 26.1614 32.8901 25.2501 32.8901C24.3388 32.8901 23.6001 33.6289 23.6001 34.5401C23.6001 35.4514 24.3388 36.1901 25.2501 36.1901Z" fill="#444444"/>
</svg>

<svg xmlns="http://www.w3.org/2000/svg" id="Camada_3" x="0" y="0" version="1.1" viewBox="0 0 50 50" xml:space="preserve"><style>.st3,.st7{fill:none;stroke-linecap:round;stroke-linejoin:round;stroke-miterlimit:10;stroke:#444}.st7{stroke-width:2.5}.st8{fill:#444}</style><path fill="#00dffc" d="M768.98 1206.65h-43.77c-1.18 0-2.13.95-2.13 2.13v17.28l44.48-15.23c.1-.04 0-.4 0-.51 0-1.17 2.59-3.67 1.42-3.67z"/><path fill="#00c8e2" d="M723.08 1226.05v25.91l34.84-12.4-8.88-10.73 12.94-13.18 4.82-5.15z"/><path d="M768.51 1207.31l-44.37 44.38m26.31-45.68l-27.52 27.25" class="st3"/><path fill="none" stroke="#444" stroke-linecap="round" stroke-linejoin="round" stroke-miterlimit="10" stroke-width="2.5" d="M753.61 1252.5h-28.88c-1.14 0-2.06-.92-2.06-2.06v-42.37c0-1.14.92-2.06 2.06-2.06h43.18c1.42 0 2.12 1.71 1.11 2.71l-20.86 20.65 9.86 9.86 7.94 7.94"/><path fill="#c3ff68" d="M2.51 7.01l-.99 15.04 46.6-16.58-1.68.46c0-1.14-39.23-.95-40.37-.95"/><path fill="#afe55d" d="M1.52 22.05l.13 12.13c.29 2.04 3.44 3.25 5.48 3.53l10.81 1.3c.26.04-3.04 3.4-2.8 3.31L48.13 30.6V8.38c0-1.42-1.4-2.41-2.74-1.93L1.52 22.05z"/><path d="M32.21 40.93v-3.01h7.11" class="st7"/><path d="M48.73 32.14l.02-20.51c0-3.87-3.14-7.01-7.01-7.01H8.34c-3.87 0-7.01 3.14-7.01 7.01v19.86c0 3.87 3.14 7.01 7.01 7.01l9.85.26.06 2.17c-4.69 0-4.82 4.45-4.82 4.45h23.21s.84-4.45-4.44-4.45" class="st7"/><path d="M5.65 30.83h38.82" class="st3"/><circle cx="8.06" cy="19.1" r="2.67" class="st8"/><circle cx="15.75" cy="25.72" r="2.67" class="st8"/><circle cx="21.73" cy="17.18" r="2.67" class="st8"/><circle cx="30.7" cy="25.72" r="2.67" class="st8"/><path d="M1.45 25.25l6.28-6.26 8.02 6.73 5.98-8.54 8.97 8.54 12.29-14.63-4.05.25m4.69 4.02l-.64-4.27" class="st3"/><circle cx="25.25" cy="34.54" r="1.65" class="st8"/></svg>
